svgs/regular/paste.svg

<svg xmlns="http://www.w3.org/2000/svg" viewBox="0 0 512 512"><!-- Font Awesome Pro 6.0.0-alpha2 by @fontawesome - https://fontawesome.com License - https://fontawesome.com/license (Commercial License) --><path d="M502.646 198.625L441.393 137.375C435.391 131.371 427.252 128 418.766 128H256C220.652 128 191.998 156.656 192 192.004L192.02 448.004C192.021 483.352 220.676 512 256.02 512H448.02C483.219 512 512.02 483.199 512.02 448V221.254C512.02 212.766 508.648 204.629 502.646 198.625ZM464.021 448C464.021 456.836 456.857 464 448.021 464H256.018C247.18 464 240.018 456.836 240.018 448L240 192.125C240 183.289 247.164 176.125 256 176.125H384.027V224C384.027 241.672 398.354 256 416.027 256H464.021V448ZM317.736 96C310.6 68.445 285.789 48 256 48H215.191C211.27 20.93 188.139 0 160 0C131.863 0 108.73 20.93 104.809 48H64C28.654 48 0 76.652 0 112V384C0 419.344 28.654 448 64 448H160V400H64C55.164 400 48 392.836 48 384V112C48 103.176 55.178 96 64 96H80V112C80 129.672 94.326 144 112 144H173.352C190.004 115.445 220.625 96 256 96H317.736ZM160 72C151.178 72 144 64.824 144 56S151.178 40 160 40S176 47.176 176 56S168.822 72 160 72Z"/></svg>

<svg xmlns="http://www.w3.org/2000/svg" viewBox="0 0 512 512"><!--! Font Awesome Pro 6.3.0 by @fontawesome - https://fontawesome.com License - https://fontawesome.com/license (Commercial License) Copyright 2023 Fonticons, Inc. --><path d="M80 96v16c0 17.7 14.3 32 32 32h60.8c16.6-28.7 47.6-48 83.2-48h62c-7.1-27.6-32.2-48-62-48H215.4C211.6 20.9 188.2 0 160 0s-51.6 20.9-55.4 48H64C28.7 48 0 76.7 0 112V384c0 35.3 28.7 64 64 64h96V400H64c-8.8 0-16-7.2-16-16V112c0-8.8 7.2-16 16-16H80zm64-40a16 16 0 1 1 32 0 16 16 0 1 1 -32 0zM256 464c-8.8 0-16-7.2-16-16V192c0-8.8 7.2-16 16-16H384v48c0 17.7 14.3 32 32 32h48V448c0 8.8-7.2 16-16 16H256zm192 48c35.3 0 64-28.7 64-64V227.9c0-12.7-5.1-24.9-14.1-33.9l-51.9-51.9c-9-9-21.2-14.1-33.9-14.1H256c-35.3 0-64 28.7-64 64V448c0 35.3 28.7 64 64 64H448z"/></svg>
